static/images/step_2.svg

<svg width="216" height="217" viewBox="0 0 216 217" fill="none" xmlns="http://www.w3.org/2000/svg">
<g filter="url(#filter0_d_1120_271)">
<path d="M208 109C208 128.778 202.018 148.112 190.81 164.557C179.602 181.002 163.672 193.819 145.034 201.388C126.396 208.957 105.887 210.937 86.1008 207.078C66.3148 203.22 48.1401 193.696 33.8752 179.711C19.6102 165.725 9.89564 147.907 5.95995 128.509C2.02426 109.111 4.04419 89.0042 11.7643 70.7316C19.4845 52.459 32.5581 36.8412 49.3319 25.853C66.1057 14.8649 85.8263 9 106 9V108.845L208 109Z" fill="url(#paint0_linear_1120_271)"/>
</g>
<path d="M106 189C151.287 189 188 152.735 188 108C188 63.2649 151.287 27 106 27C60.7126 27 24 63.2649 24 108C24 152.735 60.7126 189 106 189Z" fill="white"/>
<path d="M168.899 0.288372C159.469 1.19671 150.619 5.22611 143.773 11.7293C136.927 18.2324 132.481 26.8318 131.149 36.1459C131.149 36.1459 131.149 36.4894 131.149 36.6456C130.641 41.1397 128.381 45.2577 124.854 48.1182C121.326 50.9787 116.811 52.3543 112.274 51.9506C100.523 50.681 88.6648 53.0637 78.3357 58.7701C68.0066 64.4765 59.7158 73.2252 54.6074 83.8089C49.499 94.3926 47.8248 106.29 49.8159 117.858C51.807 129.427 57.3651 140.097 65.7234 148.396C74.0817 156.694 84.828 162.213 96.4795 164.19C108.131 166.167 120.113 164.505 130.773 159.432C141.432 154.36 150.244 146.129 155.991 135.873C161.738 125.617 164.138 113.843 162.859 102.176C162.444 97.6702 163.827 93.1825 166.709 89.678C169.592 86.1735 173.744 83.9319 178.274 83.4352H178.777C189.882 82.1346 200.012 76.5073 206.938 67.7911C213.864 59.0749 217.019 47.9839 215.71 36.9579C214.4 25.932 208.732 15.8743 199.953 8.99741C191.175 2.12053 180.004 -1.01221 168.899 0.288372Z" fill="url(#paint1_linear_1120_271)"/>
<path d="M99.8486 122.714C99.8486 124.861 99.4453 126.481 98.6387 127.575C97.8389 128.662 96.6187 129.205 94.978 129.205C93.3647 129.205 92.1479 128.675 91.3276 127.616C90.5142 126.549 90.0972 124.974 90.0767 122.889V120.305C90.0767 118.158 90.4766 116.548 91.2764 115.475C92.083 114.402 93.3101 113.865 94.9575 113.865C96.5913 113.865 97.8081 114.388 98.6079 115.434C99.4146 116.48 99.8281 118.045 99.8486 120.13V122.714ZM97.3569 119.925C97.3569 118.524 97.1655 117.499 96.7827 116.849C96.3999 116.193 95.7915 115.865 94.9575 115.865C94.144 115.865 93.5459 116.176 93.1631 116.798C92.7803 117.413 92.5786 118.377 92.5581 119.689V123.073C92.5581 124.468 92.7529 125.507 93.1426 126.19C93.5322 126.874 94.144 127.216 94.978 127.216C95.7778 127.216 96.3691 126.901 96.752 126.272C97.1348 125.637 97.3364 124.646 97.3569 123.299V119.925ZM112.092 129H102.053V127.288L107.026 121.863C107.744 121.063 108.253 120.397 108.554 119.864C108.862 119.324 109.016 118.784 109.016 118.244C109.016 117.533 108.814 116.958 108.411 116.521C108.014 116.083 107.478 115.865 106.801 115.865C105.994 115.865 105.369 116.111 104.924 116.603C104.48 117.095 104.258 117.769 104.258 118.623H101.766C101.766 117.714 101.971 116.897 102.381 116.172C102.798 115.441 103.39 114.874 104.155 114.47C104.928 114.067 105.816 113.865 106.821 113.865C108.271 113.865 109.412 114.231 110.246 114.962C111.087 115.687 111.507 116.692 111.507 117.977C111.507 118.722 111.295 119.505 110.872 120.325C110.455 121.139 109.768 122.065 108.811 123.104L105.16 127.011H112.092V129Z" fill="white"/>
<path d="M96.9893 99.7041C96.9893 99.1416 96.79 98.708 96.3916 98.4033C95.999 98.0986 95.2871 97.791 94.2559 97.4805C93.2246 97.1699 92.4043 96.8242 91.7949 96.4434C90.6289 95.7109 90.0459 94.7559 90.0459 93.5781C90.0459 92.5469 90.4648 91.6973 91.3027 91.0293C92.1465 90.3613 93.2393 90.0273 94.5811 90.0273C95.4717 90.0273 96.2656 90.1914 96.9629 90.5195C97.6602 90.8477 98.208 91.3164 98.6064 91.9258C99.0049 92.5293 99.2041 93.2002 99.2041 93.9385H96.9893C96.9893 93.2705 96.7783 92.749 96.3564 92.374C95.9404 91.9932 95.3428 91.8027 94.5635 91.8027C93.8369 91.8027 93.2715 91.958 92.8672 92.2686C92.4688 92.5791 92.2695 93.0127 92.2695 93.5693C92.2695 94.0381 92.4863 94.4307 92.9199 94.7471C93.3535 95.0576 94.0684 95.3623 95.0645 95.6611C96.0605 95.9541 96.8604 96.291 97.4639 96.6719C98.0674 97.0469 98.5098 97.4805 98.791 97.9727C99.0723 98.459 99.2129 99.0303 99.2129 99.6865C99.2129 100.753 98.8027 101.603 97.9824 102.235C97.168 102.862 96.0605 103.176 94.6602 103.176C93.7344 103.176 92.8818 103.006 92.1025 102.666C91.3291 102.32 90.7256 101.846 90.292 101.242C89.8643 100.639 89.6504 99.9355 89.6504 99.1328H91.874C91.874 99.8594 92.1143 100.422 92.5947 100.82C93.0752 101.219 93.7637 101.418 94.6602 101.418C95.4336 101.418 96.0137 101.263 96.4004 100.952C96.793 100.636 96.9893 100.22 96.9893 99.7041ZM110.41 91.9961H106.42V103H104.214V91.9961H100.259V90.2031H110.41V91.9961ZM119.577 97.2871H114.321V101.225H120.465V103H112.098V90.2031H120.403V91.9961H114.321V95.5293H119.577V97.2871ZM124.499 98.2451V103H122.275V90.2031H127.171C128.601 90.2031 129.734 90.5752 130.572 91.3193C131.416 92.0635 131.838 93.0479 131.838 94.2725C131.838 95.5264 131.425 96.502 130.599 97.1992C129.778 97.8965 128.627 98.2451 127.145 98.2451H124.499ZM124.499 96.4609H127.171C127.962 96.4609 128.565 96.2764 128.981 95.9072C129.397 95.5322 129.605 94.9932 129.605 94.29C129.605 93.5986 129.395 93.0479 128.973 92.6377C128.551 92.2217 127.971 92.0078 127.232 91.9961H124.499V96.4609Z" fill="white"/>
<path d="M193.178 63.2316C204.758 51.8792 204.758 33.4734 193.178 22.121C181.598 10.7686 162.822 10.7686 151.242 22.121C139.661 33.4734 139.661 51.8792 151.242 63.2315C162.822 74.5839 181.598 74.5839 193.178 63.2316Z" fill="white"/>
<path d="M172.69 41.7686V36.5566C172.652 36.3659 172.548 36.194 172.395 36.0705C172.242 35.9469 172.05 35.8794 171.852 35.8794C171.653 35.8794 171.461 35.9469 171.308 36.0705C171.155 36.194 171.051 36.3659 171.013 36.5566V41.1482L168.988 43.1337C168.905 43.2092 168.84 43.3004 168.795 43.4018C168.75 43.5032 168.727 43.6126 168.727 43.7231C168.727 43.8337 168.75 43.9431 168.795 44.0445C168.84 44.1459 168.905 44.2371 168.988 44.3126C169.146 44.4588 169.356 44.5401 169.573 44.5401C169.791 44.5401 170 44.4588 170.159 44.3126L172.659 41.8307L172.69 41.7686Z" fill="url(#paint2_linear_1120_271)"/>
<path d="M171.741 25.791C168.611 25.791 165.552 26.7008 162.949 28.4053C160.347 30.1097 158.319 32.5324 157.122 35.3668C155.924 38.2013 155.61 41.3202 156.221 44.3293C156.832 47.3383 158.339 50.1023 160.552 52.2717C162.765 54.4411 165.584 55.9184 168.654 56.517C171.723 57.1155 174.905 56.8083 177.796 55.6342C180.687 54.4602 183.159 52.472 184.897 49.921C186.636 47.3701 187.564 44.371 187.564 41.303C187.564 37.189 185.897 33.2435 182.93 30.3344C179.962 27.4253 175.937 25.791 171.741 25.791ZM171.741 53.0921C169.336 53.0736 166.991 52.356 165.002 51.0303C163.014 49.7046 161.471 47.8302 160.57 45.6446C159.668 43.459 159.449 41.0603 159.939 38.7523C160.428 36.4442 161.606 34.3306 163.322 32.6788C165.038 31.0271 167.215 29.9116 169.578 29.4736C171.941 29.0355 174.383 29.2945 176.596 30.2179C178.809 31.1413 180.692 32.6875 182.008 34.6608C183.324 36.634 184.013 38.9457 183.988 41.303C183.98 42.8752 183.653 44.4301 183.026 45.8772C182.399 47.3242 181.484 48.6345 180.336 49.7317C179.187 50.8289 177.827 51.6911 176.335 52.268C174.843 52.8449 173.249 53.1251 171.646 53.0921H171.741Z" fill="url(#paint3_linear_1120_271)"/>
<defs>
<filter id="filter0_d_1120_271" x="0" y="9" width="212" height="208" filterUnits="userSpaceOnUse" color-interpolation-filters="sRGB">
<feFlood flood-opacity="0" result="BackgroundImageFix"/>
<feColorMatrix in="SourceAlpha" type="matrix" values="0 0 0 0 0 0 0 0 0 0 0 0 0 0 0 0 0 0 127 0" result="hardAlpha"/>
<feOffset dy="4"/>
<feGaussianBlur stdDeviation="2"/>
<feComposite in2="hardAlpha" operator="out"/>
<feColorMatrix type="matrix" values="0 0 0 0 0 0 0 0 0 0 0 0 0 0 0 0 0 0 0.25 0"/>
<feBlend mode="normal" in2="BackgroundImageFix" result="effect1_dropShadow_1120_271"/>
<feBlend mode="normal" in="SourceGraphic" in2="effect1_dropShadow_1120_271" result="shape"/>
</filter>
<linearGradient id="paint0_linear_1120_271" x1="9412.48" y1="14047" x2="22560.3" y2="14047" gradientUnits="userSpaceOnUse">
<stop stop-color="#5C92BC"/>
<stop offset="1" stop-color="#6A82FB"/>
</linearGradient>
<linearGradient id="paint1_linear_1120_271" x1="7751.04" y1="11581.3" x2="18514.2" y2="11581.3" gradientUnits="userSpaceOnUse">
<stop stop-color="#5C92BC"/>
<stop offset="1" stop-color="#6A82FB"/>
</linearGradient>
<linearGradient id="paint2_linear_1120_271" x1="351.532" y1="643.777" x2="606.992" y2="643.777" gradientUnits="userSpaceOnUse">
<stop stop-color="#5C92BC"/>
<stop offset="1" stop-color="#6A82FB"/>
</linearGradient>
<linearGradient id="paint3_linear_1120_271" x1="1615.49" y1="2203.37" x2="3655.15" y2="2203.37" gradientUnits="userSpaceOnUse">
<stop stop-color="#5C92BC"/>
<stop offset="1" stop-color="#6A82FB"/>
</linearGradient>
</defs>
</svg>

<svg width="216" height="217" fill="none" xmlns="http://www.w3.org/2000/svg"><g filter="url(#a)"><path d="M208 109c0 19.8-6 39.1-17.2 55.6a101.6 101.6 0 0 1-45.8 36.8A103.9 103.9 0 0 1 34 179.7a98.2 98.2 0 0 1-22.1-109A100.5 100.5 0 0 1 49.3 26C66.1 14.9 85.8 9 106 9v99.8l102 .2Z" fill="url(#b)"/></g><path d="M106 189c45.3 0 82-36.3 82-81s-36.7-81-82-81-82 36.3-82 81 36.7 81 82 81Z" fill="#fff"/><path d="M168.9.3A42.4 42.4 0 0 0 131.1 36v.5A17.3 17.3 0 0 1 112.3 52a57.4 57.4 0 0 0-57.7 31.8 56.3 56.3 0 0 0 41.9 80.4 57.5 57.5 0 0 0 59.5-28.3c5.7-10.3 8.1-22 6.9-33.7a17.2 17.2 0 0 1 15.4-18.8h.5a42.2 42.2 0 0 0 37-46.4A41.8 41.8 0 0 0 168.8.3Z" fill="url(#c)"/><path d="M99.8 122.7c0 2.2-.4 3.8-1.2 4.9-.8 1-2 1.6-3.6 1.6s-2.9-.5-3.7-1.6c-.8-1-1.2-2.6-1.2-4.7v-2.6a8 8 0 0 1 1.2-4.8c.8-1.1 2-1.6 3.7-1.6 1.6 0 2.8.5 3.6 1.5.8 1 1.2 2.6 1.2 4.7v2.6Zm-2.4-2.8c0-1.4-.2-2.4-.6-3-.4-.7-1-1-1.8-1-.9 0-1.5.3-1.8.9-.4.6-.6 1.6-.6 2.9v3.4c0 1.4.2 2.4.5 3 .4.8 1 1.1 1.9 1.1a2 2 0 0 0 1.8-1c.3-.6.5-1.6.6-2.9v-3.4ZM112 129h-10v-1.7l5-5.4 1.5-2c.3-.6.4-1.1.4-1.7 0-.7-.2-1.2-.6-1.7a2 2 0 0 0-1.6-.6c-.8 0-1.4.2-1.9.7a3 3 0 0 0-.6 2h-2.5c0-.9.2-1.7.6-2.4.4-.8 1-1.3 1.8-1.7.7-.4 1.6-.6 2.6-.6a5 5 0 0 1 3.4 1c.9.8 1.3 1.8 1.3 3 0 .8-.2 1.6-.6 2.4-.4.8-1.1 1.8-2 2.8l-3.7 4h6.9v1.9ZM97 99.7c0-.6-.2-1-.6-1.3a7 7 0 0 0-2.1-1c-1-.2-1.9-.6-2.5-1-1.2-.7-1.8-1.6-1.8-2.8 0-1 .5-1.9 1.3-2.6.8-.6 2-1 3.3-1 .9 0 1.7.2 2.4.5s1.2.8 1.6 1.4c.4.6.6 1.3.6 2H97a2 2 0 0 0-.6-1.5c-.5-.4-1-.6-1.8-.6s-1.3.2-1.7.5c-.4.3-.6.7-.6 1.3 0 .4.2.8.6 1.1.5.4 1.2.7 2.2 1 1 .3 1.8.6 2.4 1a3.4 3.4 0 0 1 1.7 3c0 1-.4 1.9-1.2 2.5-.8.7-2 1-3.3 1-1 0-1.8-.2-2.6-.5-.8-.4-1.4-.9-1.8-1.5-.4-.6-.6-1.3-.6-2h2.2c0 .7.2 1.2.7 1.6.5.4 1.2.6 2 .6s1.4-.1 1.8-.4c.4-.4.6-.8.6-1.3Zm13.4-7.7h-4v11h-2.2V92h-4v-1.8h10.2V92Zm9.2 5.3h-5.3v4h6.2v1.7H112V90.2h8.3V92h-6v3.5h5.2v1.8Zm4.9 1v4.7h-2.2V90.2h4.9a5 5 0 0 1 3.4 1.1c.8.8 1.2 1.7 1.2 3 0 1.2-.4 2.2-1.2 2.9-.8.7-2 1-3.5 1h-2.6Zm0-1.8h2.7c.8 0 1.4-.2 1.8-.6.4-.4.6-1 .6-1.6 0-.7-.2-1.3-.6-1.7-.4-.4-1-.6-1.8-.6h-2.7v4.5ZM193.2 63.2a28.7 28.7 0 0 0 0-41 30 30 0 0 0-42 0 28.7 28.7 0 0 0 0 41 30 30 0 0 0 42 0Z" fill="#fff"/><path d="M172.7 41.8v-5.2c0-.2-.2-.4-.3-.5a.9.9 0 0 0-1.4.5V41l-2 2a.8.8 0 0 0 0 1.2.9.9 0 0 0 1.2 0l2.5-2.5Z" fill="url(#d)"/><path d="M171.7 25.8a16 16 0 0 0-14.6 9.6 15.2 15.2 0 0 0 3.5 16.9 16 16 0 0 0 17.2 3.3 15.3 15.3 0 0 0 5.1-25.3c-3-2.9-7-4.5-11.2-4.5Zm0 27.3a12.3 12.3 0 0 1-11.1-7.5 11.7 11.7 0 0 1 2.7-13 12.2 12.2 0 0 1 13.3-2.4c2.2 1 4 2.5 5.4 4.5a11.7 11.7 0 0 1-1.7 15 12.1 12.1 0 0 1-8.7 3.4h.1Z" fill="url(#e)"/><defs><linearGradient id="b" x1="9412.5" y1="14047" x2="22560.3" y2="14047" gradientUnits="userSpaceOnUse"><stop stop-color="#5C92BC"/><stop offset="1" stop-color="#6A82FB"/></linearGradient><linearGradient id="c" x1="7751" y1="11581.3" x2="18514.2" y2="11581.3" gradientUnits="userSpaceOnUse"><stop stop-color="#5C92BC"/><stop offset="1" stop-color="#6A82FB"/></linearGradient><linearGradient id="d" x1="351.5" y1="643.8" x2="607" y2="643.8" gradientUnits="userSpaceOnUse"><stop stop-color="#5C92BC"/><stop offset="1" stop-color="#6A82FB"/></linearGradient><linearGradient id="e" x1="1615.5" y1="2203.4" x2="3655.2" y2="2203.4" gradientUnits="userSpaceOnUse"><stop stop-color="#5C92BC"/><stop offset="1" stop-color="#6A82FB"/></linearGradient><filter id="a" x="0" y="9" width="212" height="208" filterUnits="userSpaceOnUse" color-interpolation-filters="sRGB"><feFlood flood-opacity="0" result="BackgroundImageFix"/><feColorMatrix in="SourceAlpha" values="0 0 0 0 0 0 0 0 0 0 0 0 0 0 0 0 0 0 127 0" result="hardAlpha"/><feOffset dy="4"/><feGaussianBlur stdDeviation="2"/><feComposite in2="hardAlpha" operator="out"/><feColorMatrix values="0 0 0 0 0 0 0 0 0 0 0 0 0 0 0 0 0 0 0.25 0"/><feBlend in2="BackgroundImageFix" result="effect1_dropShadow_1120_271"/><feBlend in="SourceGraphic" in2="effect1_dropShadow_1120_271" result="shape"/></filter></defs></svg>
